X:1
T:The Banks of Enverness -- Reel
R:reel
B:Ryan's Mammoth Collection
Z:Contributed by Ray Davies,  ray:davies99.freeserve.co.uk
M:C|
L:1/8
K:D
vABAF ABde|faef dBBd|ABAF ABde|faef d2 d2|
ABAF ABde|faef dBBd|ABAF ABde|baef d2 d2::
faaa fbbb|afef dBB2|(fa)aa fbbc'|d'c'b^a b2b2|
faaa fbbb|afef dBBd|ABAF ABde|faef d2 d2:|
